Numix-Circle/48x48/apps/emerald-decorator.svg

<?xml version="1.0" encoding="UTF-8" standalone="no"?>
<svg
   xmlns:dc="http://purl.org/dc/elements/1.1/"
   xmlns:cc="http://creativecommons.org/ns#"
   xmlns:rdf="http://www.w3.org/1999/02/22-rdf-syntax-ns#"
   xmlns:svg="http://www.w3.org/2000/svg"
   xmlns="http://www.w3.org/2000/svg"
   xmlns:xlink="http://www.w3.org/1999/xlink"
   xmlns:sodipodi="http://sodipodi.sourceforge.net/DTD/sodipodi-0.dtd"
   xmlns:inkscape="http://www.inkscape.org/namespaces/inkscape"
   width="48"
   viewBox="0 0 13.546667 13.546667"
   height="48"
   id="svg2"
   version="1.1"
   inkscape:version="0.91 r13725"
   sodipodi:docname="emerald-theme-manager.svg">
  <metadata
     id="metadata331">
    <rdf:RDF>
      <cc:Work
         rdf:about="">
        <dc:format>image/svg+xml</dc:format>
        <dc:type
           rdf:resource="http://purl.org/dc/dcmitype/StillImage" />
        <dc:title />
      </cc:Work>
    </rdf:RDF>
  </metadata>
  <sodipodi:namedview
     pagecolor="#ffffff"
     bordercolor="#666666"
     borderopacity="1"
     objecttolerance="10"
     gridtolerance="10"
     guidetolerance="10"
     inkscape:pageopacity="0"
     inkscape:pageshadow="2"
     inkscape:window-width="1366"
     inkscape:window-height="713"
     id="namedview329"
     showgrid="false"
     inkscape:zoom="11.313708"
     inkscape:cx="18.093445"
     inkscape:cy="22.596997"
     inkscape:window-x="0"
     inkscape:window-y="28"
     inkscape:window-maximized="1"
     inkscape:current-layer="layer2">
    <inkscape:grid
       type="xygrid"
       id="grid3308" />
  </sodipodi:namedview>
  <defs
     id="defs4">
    <linearGradient
       inkscape:collect="always"
       xlink:href="#linearGradient4460-9"
       id="linearGradient4033"
       x1="-27"
       y1="13"
       x2="-24"
       y2="13"
       gradientUnits="userSpaceOnUse" />
    <linearGradient
       id="linearGradient4460-9">
      <stop
         id="stop4454"
         style="stop-color:#e4e4e4;stop-opacity:1;"
         offset="0" />
      <stop
         id="stop4456"
         style="stop-color:#eeeeee;stop-opacity:1;"
         offset="1" />
    </linearGradient>
    <linearGradient
       id="linear0"
       gradientUnits="userSpaceOnUse"
       x1="23.295"
       y1="36.865002"
       x2="23.667999"
       y2="3.6210001">
      <stop
         stop-color="#5bcc01"
         stop-opacity="1"
         id="stop22" />
      <stop
         offset="1"
         stop-color="#b7fb3b"
         stop-opacity="0"
         id="stop24" />
    </linearGradient>
    <linearGradient
       y2="3.6210001"
       x2="23.667999"
       y1="36.865002"
       x1="23.295"
       gradientTransform="scale(0.28222223,0.28222223)"
       gradientUnits="userSpaceOnUse"
       id="linearGradient3901"
       xlink:href="#linear0"
       inkscape:collect="always" />
  </defs>
  <g
     inkscape:groupmode="layer"
     id="layer1"
     inkscape:label="Shadow"
     sodipodi:insensitive="true">
    <path
       style="opacity:0.05;fill:#000000;fill-opacity:1;stroke:none"
       d="M 25,2 C 12.297451,2 2,12.297451 2,25 2,31.367153 4.6007106,37.116628 8.78125,41.28125 12.865755,44.99361 18.29568,47.25 24.25,47.25 c 12.702549,0 23,-10.297451 23,-23 0,-5.95432 -2.25639,-11.384245 -5.96875,-15.46875 C 37.116628,4.6007105 31.367153,2 25,2 z M 41.28125,8.78125 C 45.135604,12.894061 47.5,18.418655 47.5,24.5 c 0,12.702549 -10.297451,23 -23,23 C 18.418655,47.5 12.894061,45.135604 8.78125,41.28125 12.940939,45.4251 18.664604,48 25,48 37.702549,48 48,37.702549 48,25 48,18.664604 45.4251,12.940939 41.28125,8.78125 z"
       transform="scale(0.28222223,0.28222223)"
       id="path3978"
       inkscape:connector-curvature="0" />
    <path
       style="opacity:0.1;fill:#000000;fill-opacity:1;stroke:none"
       d="M 41.28125,8.78125 C 44.99361,12.865755 47.25,18.29568 47.25,24.25 c 0,12.702549 -10.297451,23 -23,23 -5.95432,0 -11.384245,-2.25639 -15.46875,-5.96875 C 12.894061,45.135604 18.418655,47.5 24.5,47.5 c 12.702549,0 23,-10.297451 23,-23 0,-6.081345 -2.364396,-11.605939 -6.21875,-15.71875 z"
       transform="scale(0.28222223,0.28222223)"
       id="path3976"
       inkscape:connector-curvature="0" />
    <path
       transform="matrix(4.3274074,0,0,3.2455556,117.19278,-35.348334)"
       d="m -24,13 a 1.5,2 0 1 1 -3,0 1.5,2 0 1 1 3,0 z"
       sodipodi:ry="2"
       sodipodi:rx="1.5"
       sodipodi:cy="13"
       sodipodi:cx="-25.5"
       id="path3952"
       style="opacity:0.2;fill:#000000;fill-opacity:1;stroke:none"
       sodipodi:type="arc" />
  </g>
  <g
     inkscape:groupmode="layer"
     id="layer2"
     inkscape:label="Base">
    <path
       sodipodi:type="arc"
       style="fill:url(#linearGradient4033);fill-opacity:1.0;stroke:none"
       id="path3942"
       sodipodi:cx="-25.5"
       sodipodi:cy="13"
       sodipodi:rx="1.5"
       sodipodi:ry="2"
       d="m -24,13 a 1.5,2 0 1 1 -3,0 1.5,2 0 1 1 3,0 z"
       transform="matrix(0,-4.3274075,3.2455556,0,-35.418894,-103.57556)" />
    <path
       style="opacity:0.1;fill:#000000;fill-opacity:1;stroke:none"
       d="M 40.03125 7.53125 C 43.74361 11.615755 46 17.04568 46 23 C 46 35.702549 35.702549 46 23 46 C 17.04568 46 11.615755 43.74361 7.53125 40.03125 C 11.709416 44.322508 17.537578 47 24 47 C 36.702549 47 47 36.702549 47 24 C 47 17.537578 44.322508 11.709416 40.03125 7.53125 z "
       id="path4027"
       transform="scale(0.28222223,0.28222223)" />
    <g
       id="g4193">
      <g
         id="g4198">
        <path
           sodipodi:nodetypes="ccccccccccccc"
           inkscape:connector-curvature="0"
           id="path3079-1"
           d="M 3.2280579,9.5426392 z M 8.131669,4.0744423 9.842641,6.1118752 10.045489,8.2197224 9.251739,9.1810419 3.6337524,9.5162513 3.5102801,9.8248614 9.533961,9.4632641 10.327711,8.5019447 10.124864,6.3940974 8.211044,4.1186807 z"
           style="font-size:medium;font-style:normal;font-variant:normal;font-weight:normal;font-stretch:normal;text-indent:0;text-align:start;text-decoration:none;line-height:normal;letter-spacing:normal;word-spacing:normal;text-transform:none;direction:ltr;block-progression:tb;writing-mode:lr-tb;text-anchor:start;baseline-shift:baseline;color:#000000;fill:#000000;fill-opacity:0.09803922000000000;stroke:none;stroke-width:0.50000000000000000;marker:none;visibility:visible;display:inline;overflow:visible;enable-background:accumulate;font-family:Sans;-inkscape-font-specification:Sans" />
        <path
           d="M 3.2952267,9.476458 5.5101068,4.0019112 6.7171713,3.2280578 7.8692024,3.8585423 9.760938,6.1087001 9.9582113,8.1624313 9.2018558,9.1160602 M 3.2949445,9.476458"
           stroke-miterlimit="4"
           id="path78"
           style="fill:url(#linearGradient3901);fill-rule:nonzero;stroke:none"
           inkscape:connector-curvature="0" />
        <path
           style="font-size:medium;font-style:normal;font-variant:normal;font-weight:normal;font-stretch:normal;text-indent:0;text-align:start;text-decoration:none;line-height:normal;letter-spacing:normal;word-spacing:normal;text-transform:none;direction:ltr;block-progression:tb;writing-mode:lr-tb;text-anchor:start;baseline-shift:baseline;color:#000000;fill:#5fb10b;fill-opacity:1;stroke:none;stroke-width:0.5;marker:none;visibility:visible;display:inline;overflow:visible;enable-background:accumulate;font-family:Sans;-inkscape-font-specification:Sans"
           d="M 6.7309009,3.1839734 5.4697203,3.9865429 3.224389,9.5470136 9.2533808,9.1786589 10.047012,8.2198763 9.8441643,6.112029 7.9303453,3.8366123 z m 0.00882,0.15875 0.9789584,0.5379861 -2.0372918,0.1411112 z M 7.8950676,4.0130012 9.6677763,6.112029 9.4296509,7.3555707 8.221387,6.9322374 7.3129842,5.397654 7.4099981,4.048279 z M 7.2600675,4.0570982 7.1718735,5.3270983 5.5843734,6.3325149 5.6020124,4.1629316 z M 5.4609008,4.4010568 5.4432619,6.3148763 3.5470813,9.1282791 z M 7.1983314,5.4858485 8.0714564,6.9675152 7.1630536,8.3786263 5.6549286,6.4559874 z M 9.7383313,6.4471679 9.9059013,8.1845985 9.2620815,8.987168 z M 5.4961786,6.4824457 6.9954842,8.3962652 3.599998,9.304668 z M 8.1861092,7.0645291 9.4031926,7.4966818 9.1121509,9.0489041 8.1243731,9.1106402 7.268887,8.4668208 z M 7.1013175,8.510918 7.8950676,9.1194597 3.8998591,9.3664041 z"
           id="path3079"
           inkscape:connector-curvature="0"
           sodipodi:nodetypes="ccccccccccccccccccccccccccccccccccccccccccccccccccc" />
      </g>
    </g>
  </g>
  <g
     inkscape:groupmode="layer"
     id="layer3"
     inkscape:label="Symbol" />
</svg>

<svg xmlns="http://www.w3.org/2000/svg" width="48" viewBox="0 0 13.546667 13.546667" height="48">
 <defs>
  <linearGradient id="linearGradient4033" x1="-27" x2="-24" gradientUnits="userSpaceOnUse">
   <stop style="stop-color:#e4e4e4;stop-opacity:1"/>
   <stop offset="1" style="stop-color:#eee;stop-opacity:1"/>
  </linearGradient>
  <linearGradient y2="3.621" x2="23.668" y1="36.865" x1="23.295" gradientTransform="scale(0.28222223,0.28222223)" gradientUnits="userSpaceOnUse" id="linearGradient3901">
   <stop style="stop-color:#5bcc01;stop-opacity:1"/>
   <stop offset="1" style="stop-color:#b7fb3b;stop-opacity:0"/>
  </linearGradient>
 </defs>
 <g>
  <path d="m 25 2 c -12.703 0 -23 10.297 -23 23 0 6.367 2.601 12.12 6.781 16.281 4.085 3.712 9.514 5.969 15.469 5.969 c 12.703 0 23 -10.297 23 -23 0 -5.954 -2.256 -11.384 -5.969 -15.469 c -4.165 -4.181 -9.914 -6.781 -16.281 -6.781 z m 16.281 6.781 c 3.854 4.113 6.219 9.637 6.219 15.719 c 0 12.703 -10.297 23 -23 23 c -6.081 0 -11.606 -2.364 -15.719 -6.219 4.16 4.144 9.883 6.719 16.219 6.719 12.703 0 23 -10.297 23 -23 0 -6.335 -2.575 -12.06 -6.719 -16.219 z" transform="scale(0.28222223,0.28222223)" style="fill:#000;opacity:0.05;fill-opacity:1;stroke:none"/>
  <path d="m 41.28 8.781 c 3.712 4.085 5.969 9.514 5.969 15.469 c 0 12.703 -10.297 23 -23 23 -5.954 0 -11.384 -2.256 -15.469 -5.969 c 4.113 3.854 9.637 6.219 15.719 6.219 c 12.703 0 23 -10.297 23 -23 0 -6.081 -2.364 -11.606 -6.219 -15.719 z" transform="scale(0.28222223,0.28222223)" style="fill:#000;opacity:0.1;fill-opacity:1;stroke:none"/>
  <path transform="matrix(4.3274074,0,0,3.2455556,117.19278,-35.348334)" d="m -24 13 a 1.5 2 0 1 1 -3 0 1.5 2 0 1 1 3 0 z" style="fill:#000;opacity:0.2;fill-opacity:1;stroke:none"/>
 </g>
 <g>
  <path d="m -24 13 a 1.5 2 0 1 1 -3 0 1.5 2 0 1 1 3 0 z" transform="matrix(0,-4.3274075,3.2455556,0,-35.418894,-103.57556)" style="fill:url(#linearGradient4033);fill-opacity:1;stroke:none"/>
  <path d="m 40.03 7.531 c 3.712 4.085 5.969 9.514 5.969 15.469 c 0 12.703 -10.297 23 -23 23 c -5.954 0 -11.384 -2.256 -15.469 -5.969 c 4.178 4.291 10.01 6.969 16.469 6.969 c 12.703 0 23 -10.297 23 -23 c 0 -6.462 -2.677 -12.291 -6.969 -16.469 z" transform="scale(0.28222223,0.28222223)" style="fill:#000;opacity:0.1;fill-opacity:1;stroke:none"/>
  <g>
   <g>
    <path d="m 3.228 9.543 z m 4.904 -5.468 1.711 2.037 0.203 2.108 -0.794 0.961 -5.618 0.335 -0.123 0.309 6.02 -0.362 0.794 -0.961 -0.203 -2.108 -1.914 -2.275 z" style="visibility:visible;fill:#000;fill-opacity:0.098;stroke:none;display:inline;color:#000"/>
    <path d="m 3.295 9.476 2.215 -5.475 1.207 -0.774 1.152 0.63 1.892 2.25 0.197 2.054 -0.756 0.954 m -5.907 0.36" style="fill:url(#linearGradient3901);stroke:none;fill-rule:nonzero"/>
    <path d="m 6.731 3.184 -1.261 0.803 -2.245 5.56 6.03 -0.368 0.794 -0.959 -0.203 -2.108 -1.914 -2.275 z m 0.009 0.159 0.979 0.538 -2.037 0.141 z m 1.155 0.67 1.773 2.099 -0.238 1.244 -1.208 -0.423 -0.908 -1.535 0.097 -1.349 z m -0.635 0.044 -0.088 1.27 -1.588 1.01 0.018 -2.17 z m -1.799 0.344 -0.018 1.914 -1.896 2.813 z m 1.737 1.085 0.873 1.482 -0.908 1.411 -1.508 -1.923 z m 2.54 0.961 0.168 1.737 -0.644 0.803 z m -4.242 0.035 1.499 1.914 -3.395 0.908 z m 2.69 0.582 1.217 0.432 -0.291 1.552 -0.988 0.062 -0.855 -0.644 z m -1.085 1.446 0.794 0.609 -3.995 0.247 z" style="visibility:visible;fill:#5fb10b;fill-opacity:1;stroke:none;display:inline;color:#000"/>
   </g>
  </g>
 </g>
</svg>
